src/renderer/assets/svg/logo-thorchain-black.svg

<?xml version="1.0" encoding="UTF-8"?>
<svg width="139px" height="30px" viewBox="0 0 139 30" version="1.1" xmlns="http://www.w3.org/2000/svg" xmlns:xlink="http://www.w3.org/1999/xlink">
    <!-- Generator: Sketch 54.1 (76490) - https://sketchapp.com -->
    <title>LOGO/THORChain-white</title>
    <desc>Created with Sketch.</desc>
    <defs>
        <linearGradient x1="0%" y1="50%" x2="100%" y2="50%" id="linearGradient-1">
            <stop stop-color="#00CCFF" offset="0%"></stop>
            <stop stop-color="#33FF99" offset="100%"></stop>
        </linearGradient>
    </defs>
    <g id="Symbols" stroke="none" stroke-width="1" fill="none" fill-rule="evenodd">
        <g id="Footer" transform="translate(-97.000000, -35.000000)">
            <g id="LOGO/THORChain-Black" transform="translate(97.000000, 35.000000)">
                <g id="Thorchain_logo-copy">
                    <path d="M0,30 L20.7669527,21.1796902 L14.197219,14.4578313 L0,30 Z M7.62748535,7.74526678 L14.197219,14.4578313 L25.9328358,0 L7.62748535,7.74526678 Z" id="Shape" fill="url(#linearGradient-1)" fill-rule="nonzero"></path>
                    <polygon id="Path" fill="#101921" fill-rule="nonzero" points="36.4071715 11.0204291 33.1940299 11.0204291 33.1940299 9.31034483 41.4925373 9.31034483 41.4925373 11.0235141 38.2895158 11.0235141 38.2895158 20.6896552 36.4071715 20.6896552"></polygon>
                    <polygon id="Path" fill="#101921" fill-rule="nonzero" points="45.641791 9.31034483 47.4710319 9.31034483 47.4710319 14.230072 52.0961857 14.230072 52.0961857 9.31034483 53.9402985 9.31034483 53.9402985 20.6896552 52.0961857 20.6896552 52.0961857 15.9405663 47.4710319 15.9405663 47.4710319 20.6896552 45.641791 20.6896552"></polygon>
                    <path d="M61.119553,20.2573483 C60.4605541,19.9677985 59.9636898,19.4190007 59.6289601,18.6109549 C59.2942305,17.802909 59.1268657,16.6137349 59.1268657,15.0434324 C59.1268657,13.4778436 59.2966712,12.2809257 59.6362823,11.4526787 C59.9758934,10.6244317 60.4755472,10.0594729 61.1352435,9.75780249 C61.7942425,9.46017227 62.6781379,9.31102047 63.7869298,9.3103471 C64.8957217,9.30967373 65.7872881,9.45882552 66.4616288,9.75780249 C67.1255092,10.0561061 67.625163,10.6166879 67.9605899,11.4395479 C68.2960169,12.2624079 68.4633818,13.4620194 68.4626844,15.0383821 C68.4626844,16.603971 68.2925302,17.7931451 67.9522217,18.6059046 C67.6119132,19.418664 67.1150489,19.9691453 66.4616288,20.2573483 C65.8082087,20.5448779 64.9166423,20.6889795 63.7869298,20.6896528 C62.6572173,20.6903262 61.7680917,20.5462247 61.119553,20.2573483 Z M65.4417494,18.7038801 C65.8238991,18.5018687 66.0986564,18.1207404 66.2660212,17.5604953 C66.433386,17.0002501 66.5170684,16.1585357 66.5170684,15.035352 C66.5170684,13.8737861 66.4305966,13.0051368 66.2576529,12.4294041 C66.0847093,11.8536714 65.8103007,11.469513 65.4344272,11.2769287 C65.0578564,11.0863645 64.5086906,10.9907458 63.7869298,10.9900724 C63.0860896,10.9900724 62.5473841,11.0883847 62.1708133,11.2850092 C61.7942425,11.4816336 61.5170445,11.8654554 61.3392194,12.4364745 C61.1613942,13.0068202 61.0724817,13.8731127 61.0724817,15.035352 C61.0724817,16.1666162 61.1533747,17.0083306 61.3151607,17.5604953 C61.4769467,18.1126599 61.7482171,18.4937882 62.1289721,18.7038801 C62.5055429,18.9058916 63.0599389,19.0068973 63.79216,19.0068973 C64.510434,19.0068973 65.0602971,18.9058916 65.4417494,18.7038801 L65.4417494,18.7038801 Z" id="Shape" fill="#101921" fill-rule="nonzero"></path>
                    <path d="M72.6119403,9.31034483 L77.3903515,9.31034483 C78.3885085,9.31034483 79.179601,9.56500064 79.7636291,10.0743123 C80.3476571,10.5836239 80.6396711,11.5055945 80.6396711,12.840224 C80.6396711,13.8478795 80.4563217,14.5827141 80.0896229,15.0447276 C79.7237178,15.5077905 79.2212361,15.8523615 78.6486665,16.032847 L80.9104478,20.6896552 L78.9194431,20.6896552 L76.8806543,16.3104663 C76.2329141,16.3104663 75.463059,16.2998414 74.5710889,16.2785915 L74.5710889,20.6896552 L72.6119403,20.6896552 L72.6119403,9.31034483 Z M77.0558627,14.7856161 C77.5655599,14.7856161 77.9609292,14.6444073 78.2419706,14.3619895 C78.5230119,14.0795718 78.6645945,13.5733448 78.6667182,12.8433086 C78.6667182,12.144119 78.5251357,11.6642831 78.2419706,11.4038007 C77.9588055,11.1433183 77.5634362,11.0147908 77.0558627,11.0182182 L74.5710889,11.0182182 L74.5710889,14.780475 L77.0558627,14.7856161 Z" id="Shape" fill="#101921" fill-rule="nonzero"></path>
                    <path d="M86.7564737,20.2431678 C86.2056382,19.9448377 85.7849704,19.3815123 85.4944703,18.5531916 C85.2039701,17.7248709 85.059048,16.5281832 85.0597037,14.9631285 C85.0597037,13.4768653 85.2072489,12.3226037 85.5023394,11.5003439 C85.7974298,10.6780841 86.2302291,10.107351 86.8007372,9.78814445 C87.3699339,9.46961137 88.10766,9.31034483 89.0139155,9.31034483 C89.6091484,9.31093766 90.2034287,9.35923464 90.7913435,9.45479588 C91.3073504,9.53321721 91.817681,9.64694351 92.3189283,9.79521548 L92.3189283,11.2377057 C92.0238378,11.1777703 91.60317,11.1225489 91.0569249,11.0720415 C90.5106797,11.0215342 89.9532866,10.9962805 89.3847458,10.9962805 C88.7355468,10.9962805 88.2361882,11.0996522 87.88667,11.3063957 C87.5371518,11.5131391 87.2840298,11.8996888 87.127304,12.4660446 C86.9699224,13.0317271 86.8912316,13.8735164 86.8912316,14.9914126 C86.8912316,16.1093088 86.9650042,16.9527817 87.1125495,17.5218313 C87.2600947,18.0888606 87.5060034,18.4777673 87.8502755,18.6885513 C88.1945477,18.8993354 88.7011196,19.0054008 89.3699912,19.0067477 C90.3560653,19.015191 91.3416709,18.9595216 92.3208955,18.8400734 L92.3208955,20.2795331 C91.4257879,20.5489057 90.3093624,20.6856123 88.9716192,20.6896529 C88.045691,20.6903263 87.3073091,20.541498 86.7564737,20.2431678 Z" id="Path" fill="#101921" fill-rule="nonzero"></path>
                    <polygon id="Path" fill="#101921" fill-rule="nonzero" points="96.4701493 9.31034483 98.2993901 9.31034483 98.2993901 14.230072 102.924544 14.230072 102.924544 9.31034483 104.768657 9.31034483 104.768657 20.6896552 102.924544 20.6896552 102.924544 15.9405663 98.2993901 15.9405663 98.2993901 20.6896552 96.4701493 20.6896552"></polygon>
                    <path d="M113.472076,9.31034483 L115.764397,9.31034483 L119.291045,20.6896552 L117.395471,20.6896552 L116.557893,17.9882254 L112.639395,17.9882254 L111.81651,20.6865713 L109.955224,20.6865713 L113.472076,9.31034483 Z M116.117062,16.2797869 L114.588847,10.9457995 L113.060633,16.2797869 L116.117062,16.2797869 Z" id="Shape" fill="#101921" fill-rule="nonzero"></path>
                    <polygon id="Path" fill="#101921" fill-rule="nonzero" points="123.440299 9.31034483 125.514925 9.31034483 125.514925 20.6896552 123.440299 20.6896552"></polygon>
                    <polygon id="Path" fill="#101921" fill-rule="nonzero" points="130.701493 9.31034483 132.171175 9.31034483 137.159186 17.4362209 137.159186 9.31034483 139 9.31034483 139 20.6896552 137.530318 20.6896552 132.542306 12.5689188 132.542306 20.6896552 130.701493 20.6896552"></polygon>
                </g>
            </g>
        </g>
    </g>
</svg>

<svg xmlns="http://www.w3.org/2000/svg" width="139" height="30" viewBox="0 0 139 30"><defs><linearGradient id="a" x1="0%" x2="100%" y1="50%" y2="50%"><stop offset="0%" stop-color="#0CF"/><stop offset="100%" stop-color="#3F9"/></linearGradient></defs><g fill="none"><path fill="url(#a)" d="m0 30 20.767-8.82-6.57-6.722zM7.627 7.745l6.57 6.713L25.933 0z"/><path fill="#101921" d="M36.407 11.02h-3.213V9.31h8.299v1.714H38.29v9.666h-1.883zm9.235-1.71h1.829v4.92h4.625V9.31h1.844v11.38h-1.844v-4.75h-4.625v4.75h-1.83zM61.12 20.257c-.66-.29-1.156-.838-1.491-1.646-.335-.808-.502-1.997-.502-3.568 0-1.565.17-2.762.51-3.59.339-.829.839-1.394 1.498-1.695.66-.298 1.543-.447 2.652-.448 1.109 0 2 .149 2.675.448.664.298 1.163.859 1.499 1.682.335.822.502 2.022.502 3.598 0 1.566-.17 2.755-.51 3.568-.341.813-.838 1.363-1.491 1.651-.654.288-1.545.432-2.675.433-1.13 0-2.019-.144-2.667-.433m4.322-1.553c.382-.202.657-.583.824-1.144.167-.56.251-1.401.251-2.525 0-1.161-.086-2.03-.26-2.606-.172-.575-.447-.96-.823-1.152-.376-.19-.925-.286-1.647-.287-.7 0-1.24.098-1.616.295-.377.197-.654.58-.832 1.151-.178.57-.267 1.437-.267 2.6 0 1.13.081 1.972.243 2.524.162.553.433.934.814 1.144.377.202.93.303 1.663.303.718 0 1.268-.101 1.65-.303m7.17-9.394h4.778c.999 0 1.79.255 2.374.764.584.51.876 1.432.876 2.766 0 1.008-.184 1.743-.55 2.205a2.974 2.974 0 0 1-1.441.988l2.261 4.657h-1.99l-2.04-4.38c-.647 0-1.417-.01-2.309-.031v4.41h-1.96zm4.444 5.476c.51 0 .905-.142 1.186-.424.281-.282.423-.789.425-1.519 0-.699-.142-1.179-.425-1.44-.283-.26-.679-.388-1.186-.385H74.57v3.762zm9.7 5.457c-.55-.298-.971-.861-1.262-1.69-.29-.828-.435-2.025-.434-3.59 0-1.486.147-2.64.442-3.463.295-.822.728-1.393 1.299-1.712.569-.318 1.307-.478 2.213-.478.595 0 1.19.05 1.777.145a11.45 11.45 0 0 1 1.528.34v1.443c-.295-.06-.716-.115-1.262-.166a18.156 18.156 0 0 0-1.672-.076c-.65 0-1.149.104-1.498.31-.35.207-.603.594-.76 1.16-.157.566-.236 1.408-.236 2.525 0 1.118.074 1.962.222 2.53.147.568.393.957.737 1.168.345.21.851.316 1.52.318a22.76 22.76 0 0 0 2.95-.167v1.44c-.894.269-2.01.406-3.348.41-.926 0-1.665-.149-2.216-.447M96.47 9.31h1.83v4.92h4.625V9.31h1.844v11.38h-1.844v-4.75h-4.626v4.75H96.47zm17.002 0h2.292l3.527 11.38h-1.896l-.837-2.702h-3.919l-.822 2.699h-1.862zm2.645 6.97-1.528-5.334-1.528 5.334zm7.323-6.97h2.075v11.38h-2.075zm7.261 0h1.47l4.988 8.126V9.31H139v11.38h-1.47l-4.988-8.121v8.12h-1.84z"/></g></svg>
